public/img/like-svg.svg

<svg width="54" height="52" viewBox="0 0 54 52" fill="none" xmlns="http://www.w3.org/2000/svg">
<path d="M54 30.9375C54 29.5853 53.4622 28.3252 52.5353 27.3959C53.586 26.2462 54.1215 24.7049 53.9752 23.1007C53.712 20.2409 51.1357 17.9999 48.1073 17.9999H34.209C34.8975 15.9096 36 12.078 36 8.99996C36 4.11971 31.8533 0 29.25 0C26.9145 0 25.2427 1.31625 25.173 1.37025C24.9052 1.58404 24.7499 1.90804 24.7499 2.24996V9.87968L18.2677 23.9175L17.9999 24.0547V23.6249C17.9999 23.0039 17.4959 22.4999 16.8749 22.4999H5.62496C2.52229 22.5 0 25.0223 0 28.1249V46.125C0 49.2278 2.52229 51.7499 5.62496 51.7499H12.375C14.8072 51.7499 16.8862 50.1974 17.6692 48.0307C19.5413 48.9937 22.0612 49.5 23.625 49.5H44.2778C46.728 49.5 48.8723 47.8484 49.3763 45.5715C49.635 44.397 49.4842 43.2157 48.9713 42.1897C50.6318 41.3549 51.75 39.6382 51.75 37.6875C51.75 36.891 51.5678 36.1282 51.2235 35.4397C52.884 34.6027 54 32.8882 54 30.9375ZM49.2547 33.7139C48.8205 33.7657 48.4537 34.0604 48.3143 34.4767C48.1771 34.893 48.2918 35.3496 48.6113 35.6512C49.1828 36.189 49.5001 36.9134 49.5001 37.6875C49.5001 39.1072 48.4268 40.2997 47.0071 40.4639C46.5729 40.5157 46.2061 40.8104 46.0666 41.2267C45.9294 41.643 46.0442 42.0996 46.3636 42.4012C47.1039 43.0986 47.4009 44.0774 47.1782 45.0855C46.9014 46.341 45.6819 47.25 44.2779 47.25H23.625C21.798 47.25 18.7335 46.3927 17.6715 45.3285C17.3497 45.009 16.8637 44.9145 16.4452 45.0855C16.0245 45.2588 15.75 45.6705 15.75 46.125C15.75 47.9858 14.2358 49.5 12.375 49.5H5.62496C3.76418 49.5 2.24996 47.9858 2.24996 46.125V28.1249C2.24996 26.2641 3.76418 24.7499 5.62496 24.7499H15.75V25.875C15.75 26.2643 15.9525 26.6264 16.2854 26.8335C16.614 27.0314 17.0279 27.0517 17.3789 26.8807L19.6289 25.7557C19.8562 25.6431 20.0384 25.4541 20.1464 25.2224L26.8964 10.5974C26.9639 10.4489 26.9999 10.2869 26.9999 10.1249V2.85968C27.468 2.60096 28.2803 2.24996 29.25 2.24996C30.483 2.24996 33.75 5.31447 33.75 8.99996C33.75 12.96 31.5945 18.6682 31.5743 18.7245C31.4438 19.0688 31.4888 19.458 31.698 19.764C31.9095 20.0677 32.256 20.25 32.625 20.25H48.1073C49.9837 20.25 51.5768 21.5933 51.7342 23.3078C51.8535 24.5903 51.2369 25.8098 50.1323 26.4915C49.788 26.703 49.5833 27.0855 49.599 27.4928C49.6147 27.9 49.8488 28.2645 50.2087 28.4513C51.1605 28.935 51.7499 29.889 51.7499 30.9375C51.75 32.3572 50.6768 33.5497 49.2547 33.7139Z" fill="url(#paint0_radial)"/>
<defs>
<radialGradient id="paint0_radial" cx="0" cy="0" r="1" gradientUnits="userSpaceOnUse" gradientTransform="translate(41.1912 22.8006) scale(43.3261 95.2956)">
<stop stop-color="#16C940"/>
<stop offset="0.3403" stop-color="#0D9733"/>
<stop offset="0.7565" stop-color="#045F24"/>
<stop offset="0.9578" stop-color="#00491E"/>
</radialGradient>
</defs>
</svg>

<svg width="54" height="52" viewBox="0 0 54 52" fill="none" xmlns="http://www.w3.org/2000/svg"><path d="M54 30.938a5 5 0 00-1.465-3.542 5.586 5.586 0 001.44-4.295C53.712 20.24 51.135 18 48.107 18H34.21c.687-2.09 1.79-5.922 1.79-9 0-4.88-4.147-9-6.75-9-2.335 0-4.007 1.316-4.077 1.37a1.126 1.126 0 00-.423.88v7.63l-6.482 14.037-.268.138v-.43c0-.621-.504-1.125-1.125-1.125H5.625A5.63 5.63 0 000 28.125v18a5.63 5.63 0 005.625 5.625h6.75a5.638 5.638 0 005.294-3.72c1.872.964 4.392 1.47 5.956 1.47h20.653c2.45 0 4.594-1.652 5.098-3.928a5.08 5.08 0 00-.405-3.382 5.042 5.042 0 002.253-6.75A5.042 5.042 0 0054 30.938zm-4.745 2.776a1.13 1.13 0 00-.94.763c-.138.416-.023.873.296 1.174.572.538.89 1.262.89 2.036a2.804 2.804 0 01-2.494 2.777 1.13 1.13 0 00-.94.763c-.138.416-.023.873.297 1.174.74.698 1.037 1.676.814 2.684-.277 1.256-1.496 2.165-2.9 2.165H23.625c-1.827 0-4.892-.857-5.953-1.922a1.125 1.125 0 00-1.922.797 3.38 3.38 0 01-3.375 3.375h-6.75a3.38 3.38 0 01-3.375-3.375v-18a3.38 3.38 0 013.375-3.375H15.75v1.125c0 .39.203.751.535.959a1.15 1.15 0 001.094.047l2.25-1.125c.227-.113.41-.302.517-.534l6.75-14.625c.068-.148.104-.31.104-.472V2.86c.468-.259 1.28-.61 2.25-.61 1.233 0 4.5 3.064 4.5 6.75 0 3.96-2.155 9.668-2.176 9.724-.13.345-.085.734.124 1.04.212.304.558.486.927.486h15.482c1.877 0 3.47 1.343 3.627 3.058a3.361 3.361 0 01-1.602 3.183 1.13 1.13 0 00.076 1.96 2.785 2.785 0 011.542 2.487 2.804 2.804 0 01-2.495 2.776z" fill="url(#paint0_radial)"/><defs><radialGradient id="paint0_radial" cx="0" cy="0" r="1" gradientUnits="userSpaceOnUse" gradientTransform="matrix(43.3261 0 0 95.2956 41.191 22.8)"><stop stop-color="#16C940"/><stop offset=".34" stop-color="#0D9733"/><stop offset=".756" stop-color="#045F24"/><stop offset=".958" stop-color="#00491E"/></radialGradient></defs></svg>
